X: 27
T: the (Old) Dominion Reel
O: 1839
R: reel
B: George P. Knauff’s Virginia Reels, vol. III (Baltimore, 1839)
Z: Mary Lou Knack
M: C|
L: 1/8
K: C
G2 |:\
"C"c2c2 "G7"BcdB | "C"cega gece | "F"f2fd "C"e2ec |\
[1,3 "Dm"dcBA "G7"G2AB :|[2,4 "G7"dcBd "C"c2 :: G2 | "C"cege cege |
"Dm"defe "G7"dcBd | "C"cege cege | "D7"dg^fa "G7"g2G2 ||\
"C"cege cege | "F"f2fe dcBA | "G7"GABc defg | "(C)"ec"G7"dB "C"c2 :|

%%sep 1 1 500

